X:1
T:Lesson 17 - Trumpet Minuet
M:3/4
K:C
L:1/4
!mf!vC C/C/ C/C/|C E/D/ C/E/|D D/D/ D/D/|D F/E/ D/F/|E E/E/ E/E/|E G/F/ E/D/|
C E D|C3|vG G/G/ G/G/|G A/G/ F/E/|F F/F/ F/F/|F G/F/ E/D/|
E E/E/ E/E/|E F G|D D/D/ D/D/|D3|!f!vc c/c/ c/c/|c e/d/ c/e/|d d/d/ d/d/|
d f/e/ d/f/|e e/e/ e/e/|e g/f/ e/d/| c e d|c3|vg g/g/ g/g/|g a/g/ f/e/|
f f/f/ f/f/|f g/f/ e/d/| e e/e/ e/e/ | e f g|d d/d/ d/d/ | d3|vc c/c/ c/c/|
c e/d/ c/e/|d d/d/ d/d/|d f/e/ d/f/|e e/e/ e/e/|e g/f/ e/d/|c e d|c3|]

